icons/smartphone.svg

<?xml version="1.0" encoding="UTF-8" standalone="no"?>
<svg id="svg3045" xmlns:rdf="http://www.w3.org/1999/02/22-rdf-syntax-ns#" xmlns="http://www.w3.org/2000/svg" height="22" width="22" version="1.1" xmlns:cc="http://creativecommons.org/ns#" xmlns:dc="http://purl.org/dc/elements/1.1/">
	<defs id="defs3615">
		<style id="current-color-scheme" type="text/css">.ColorScheme-Text {
            color:#0000FF;
            }
            .ColorScheme-Background{
            color:#E9E8E8;
            }
            .ColorScheme-ViewText {
            color:#31363b;
            }
            .ColorScheme-ViewBackground{
            color:#ffffff;
            }
            .ColorScheme-ViewHover {
            }
            .ColorScheme-ViewFocus{
            color:#5a5a5a;
            }
            .ColorScheme-ButtonText {
            color:#31363b;
            }
            .ColorScheme-ButtonBackground{
            color:#E9E8E8;
            }
            .ColorScheme-ButtonHover {
            color:#1489ff;
            }
            .ColorScheme-ButtonFocus{
            color:#2B74C7;
            }</style>
	</defs>
	<metadata id="metadata3050">
		<rdf:RDF>
			<cc:Work rdf:about="">
				<dc:format>image/svg+xml</dc:format>
				<dc:type rdf:resource="http://purl.org/dc/dcmitype/StillImage"/>
				<dc:title/>
				<dc:creator>
					<cc:Agent>
						<dc:title>obnosim</dc:title>
					</cc:Agent>
				</dc:creator>
				<cc:license rdf:resource="http://creativecommons.org/licenses/by-nc-sa/3.0/"/>
			</cc:Work>
			<cc:License rdf:about="http://creativecommons.org/licenses/by-nc-sa/3.0/">
				<cc:permits rdf:resource="http://creativecommons.org/ns#Reproduction"/>
				<cc:permits rdf:resource="http://creativecommons.org/ns#Distribution"/>
				<cc:requires rdf:resource="http://creativecommons.org/ns#Notice"/>
				<cc:requires rdf:resource="http://creativecommons.org/ns#Attribution"/>
				<cc:prohibits rdf:resource="http://creativecommons.org/ns#CommercialUse"/>
				<cc:permits rdf:resource="http://creativecommons.org/ns#DerivativeWorks"/>
				<cc:requires rdf:resource="http://creativecommons.org/ns#ShareAlike"/>
			</cc:License>
		</rdf:RDF>
	</metadata>
	<g id="smartphone" transform="translate(-1 -1)">
		<rect id="rect3793" style="opacity:.375;fill:none" ry=".5" height="22" width="22" y="1" x="1"/>
		<rect id="rect3340" style="opacity:.375;fill:#000000" ry="1" height="16.5" width="10.4" y="6" x="6.8"/>
		<path id="rect3757" class="ColorScheme-Text" style="fill:currentColor;opacity:.875" d="m8 5c-1.108 0-2 .892-2 2v14c0 1.108.892 2 2 2h8c1.108 0 2-.892 2-2v-14c0-1.108-.892-2-2-2h-8zm-1 2h10v13h-10v-13zm4.5 14h1c.277 0 .5.223.5.5s-.223.5-.5.5h-1c-.277 0-.5-.223-.5-.5s.223-.5.5-.5z"/>
		<path id="path3767" class="ColorScheme-Text" style="stroke-linejoin:round;stroke:currentColor;stroke-linecap:round;fill:none;stroke-width:1px;opacity:.875" d="m16 1.5c3.0376 0 5.5 2.4624 5.5 5.5m-5.5-3.5c1.933 0 3.5 1.567 3.5 3.5"/>
	</g>
</svg>

<?xml version="1.0" encoding="UTF-8" standalone="no"?>
<!-- Created with Inkscape (http://www.inkscape.org/) -->

<svg
   xmlns:dc="http://purl.org/dc/elements/1.1/"
   xmlns:cc="http://creativecommons.org/ns#"
   xmlns:rdf="http://www.w3.org/1999/02/22-rdf-syntax-ns#"
   xmlns:svg="http://www.w3.org/2000/svg"
   xmlns="http://www.w3.org/2000/svg"
   xmlns:sodipodi="http://sodipodi.sourceforge.net/DTD/sodipodi-0.dtd"
   xmlns:inkscape="http://www.inkscape.org/namespaces/inkscape"
   version="1.1"
   width="22"
   height="22"
   id="svg3045"
   inkscape:version="0.91 r13725"
   sodipodi:docname="smartphone.svg">
  <sodipodi:namedview
     pagecolor="#323232"
     bordercolor="#666666"
     borderopacity="1"
     objecttolerance="10"
     gridtolerance="10"
     guidetolerance="10"
     inkscape:pageopacity="1"
     inkscape:pageshadow="2"
     inkscape:window-width="1920"
     inkscape:window-height="1056"
     id="namedview10"
     showgrid="true"
     inkscape:showpageshadow="false"
     showborder="false"
     fit-margin-top="0"
     fit-margin-left="0"
     fit-margin-right="0"
     fit-margin-bottom="0"
     inkscape:zoom="22.627417"
     inkscape:cx="29.966662"
     inkscape:cy="14.870563"
     inkscape:window-x="0"
     inkscape:window-y="-3"
     inkscape:window-maximized="1"
     inkscape:current-layer="svg3045">
    <inkscape:grid
       type="xygrid"
       id="grid2987"
       empspacing="4"
       visible="true"
       enabled="true"
       snapvisiblegridlinesonly="true"
       originx="-1"
       originy="-1" />
  </sodipodi:namedview>
  <defs
     id="defs3047" />
  <metadata
     id="metadata3050">
    <rdf:RDF>
      <cc:Work
         rdf:about="">
        <dc:format>image/svg+xml</dc:format>
        <dc:type
           rdf:resource="http://purl.org/dc/dcmitype/StillImage" />
        <dc:title />
        <dc:creator>
          <cc:Agent>
            <dc:title>obnosim</dc:title>
          </cc:Agent>
        </dc:creator>
        <cc:license
           rdf:resource="http://creativecommons.org/licenses/by-nc-sa/3.0/" />
      </cc:Work>
      <cc:License
         rdf:about="http://creativecommons.org/licenses/by-nc-sa/3.0/">
        <cc:permits
           rdf:resource="http://creativecommons.org/ns#Reproduction" />
        <cc:permits
           rdf:resource="http://creativecommons.org/ns#Distribution" />
        <cc:requires
           rdf:resource="http://creativecommons.org/ns#Notice" />
        <cc:requires
           rdf:resource="http://creativecommons.org/ns#Attribution" />
        <cc:prohibits
           rdf:resource="http://creativecommons.org/ns#CommercialUse" />
        <cc:permits
           rdf:resource="http://creativecommons.org/ns#DerivativeWorks" />
        <cc:requires
           rdf:resource="http://creativecommons.org/ns#ShareAlike" />
      </cc:License>
    </rdf:RDF>
  </metadata>
  <g
     id="smartphone"
     transform="translate(-1,-1.0000001)">
    <rect
       ry="0.5"
       y="1.0000001"
       x="1"
       height="22"
       width="22"
       id="rect3793"
       style="opacity:0.375;fill:none;stroke:none" />
    <path
       inkscape:connector-curvature="0"
       id="rect3757"
       d="M 8,5 C 6.892,5 6,5.892 6,7 l 0,14 c 0,1.108 0.892,2 2,2 l 8,0 c 1.108,0 2,-0.892 2,-2 L 18,7 C 18,5.892 17.108,5 16,5 L 8,5 Z M 7,7 17,7 17,20 7,20 7,7 Z m 4.5,14 1,0 c 0.277,0 0.5,0.223 0.5,0.5 0,0.277 -0.223,0.5 -0.5,0.5 l -1,0 C 11.223,22 11,21.777 11,21.5 11,21.223 11.223,21 11.5,21 Z"
       style="fill:#e0e0e0;fill-opacity:1;stroke:none" />
    <path
       inkscape:connector-curvature="0"
       d="m 16,1.5 c 3.037566,0 5.5,2.4624339 5.5,5.5 M 16.000005,3.5000012 c 1.932997,0 3.500001,1.5670039 3.500001,3.500001"
       style="color:#000000;display:inline;overflow:visible;visibility:visible;fill:none;stroke:#e0e0e0;stroke-width:1px;stroke-linecap:round;stroke-linejoin:round;stroke-opacity:1;marker:none;enable-background:accumulate"
       id="path3767" />
  </g>
</svg>
